!!!OTL: Ritter und Magd Ach Herre Gott, mich treibt die Not,
!!!ARE: Europa, Osteuropa, Tschechoslowakei, Boehmen
!!!ARD1: Europa%Osteuropa%Tschechoslowakei@Boehmen#?
!!!ARL1: ? / ?
!!!ARD2: Europa%Osteuropa%Tschechoslowakei@
!!!ARL2: 49.75/15@
!!!YOR: 3, S. 51
!!    1595 gedruckt
!!!SCT: Q1055M
!!!YEM: Copyright 1995, estate of Helmut Schaffrath.
**kern
*ICvox
*Ivox
*M3/2
*k[f#]
*G:
{4g
4g
4g
=1
2.cc
4a
4b
4cc
=2
2dd
4r}
{4dd
4dd
4dd
=3
2gg
4ee
4ff#
2ee
=4
2dd
4r}
{4dd
4dd
4dd
=5
2.ee
4dd
4cc
4b
=6
2a
4r}
{4dd
4dd
4dd
=7
2cc
4dd
4b
2a
=8
2.g}
==
!!!AGN: geistlich
!! Melodievergleich zu Q0055B, D, und E; anderes Lied.
!!!ONB: ESAC (Essen Associative Code) Database: BALLADE
!!!AMT: simple triple
!!!AIN: vox
!!!EED: Helmut Schaffrath
!!!EEV: 1.0
*-
!!!title: @{OTL} [@{SCT}]
